32x32/apps/gedit-icon.svg

<svg xmlns="http://www.w3.org/2000/svg" width="32" height="32" version="1">
 <path style="opacity:0.2" d="M 5.375,31 C 4.6132,31 4,30.376 4,29.6 V 4.4 C 4,3.6244 4.6132,3 5.375,3 H 24.625 C 25.387,3 26,3.6244 26,4.4 V 23 L 18,31 Z"/>
 <path style="fill:#f4f4f7" d="M 5.375,30 C 4.6132,30 4,29.376 4,28.6 V 3.4 C 4,2.6244 4.6132,2 5.375,2 H 24.625 C 25.387,2 26,2.6244 26,3.4 V 22 L 18,30 Z"/>
 <path style="opacity:0.2;fill:#f4f4f7" d="M 5.375,2 C 4.6132,2 4,2.6248 4,3.4004 V 4.4004 C 4,3.6248 4.6132,3 5.375,3 H 24.625 C 25.387,3 26,3.6248 26,4.4004 V 3.4004 C 26,2.6248 25.387,2 24.625,2 Z"/>
 <path style="fill:#fafafa" d="M 18,30 V 23.333 C 18,22.597 18.597,22 19.333,22 H 26 Z"/>
 <path style="opacity:0.1" d="M 28,3.0002 C 27.522,3.0479 27.176,3.3952 27.176,3.3952 L 13,17.57 V 22 H 17.43 L 31.605,7.8249 C 31.605,7.8249 32.491,6.9394 31.605,6.0534 L 28.947,3.3952 C 28.615,3.063 28.284,2.9786 28,3.0002 Z"/>
 <path style="fill:#f3d491" d="M 13,21 V 16.57 L 17.43,21 Z"/>
 <path style="fill:#545454" d="M 13,21 V 19.228 L 14.772,21 Z"/>
 <path style="fill:#ffbb29" d="M 27.176,2.3938 13,16.57 17.43,21 31.606,6.8238 C 31.606,6.8238 32.492,5.9378 31.606,5.0518 L 28.948,2.3938 C 28.062,1.5078 27.176,2.3938 27.176,2.3938 Z"/>
</svg>

<svg xmlns="http://www.w3.org/2000/svg" width="32" height="32" version="1"><path style="opacity:.2" d="M5.375 31A1.384 1.384 0 0 1 4 29.6V4.4C4 3.624 4.613 3 5.375 3h19.25C25.387 3 26 3.624 26 4.4V23l-8 8z"/><path style="fill:#f4f4f7" d="M5.375 30A1.384 1.384 0 0 1 4 28.6V3.4C4 2.624 4.613 2 5.375 2h19.25C25.387 2 26 2.624 26 3.4V22l-8 8z"/><path style="opacity:.2;fill:#f4f4f7" d="M5.375 2C4.613 2 4 2.625 4 3.4v1C4 3.625 4.613 3 5.375 3h19.25C25.387 3 26 3.625 26 4.4v-1c0-.775-.613-1.4-1.375-1.4z"/><path style="fill:#fafafa" d="M18 30v-6.667c0-.736.597-1.333 1.333-1.333H26z"/><path style="opacity:.1" d="M28 3c-.478.048-.824.395-.824.395L13 17.57V22h4.43L31.605 7.825s.886-.886 0-1.772l-2.658-2.658C28.615 3.063 28.284 2.98 28 3z"/><path style="fill:#f3d491" d="M13 21v-4.43L17.43 21z"/><path style="fill:#545454" d="M13 21v-1.772L14.772 21z"/><path style="fill:#ffbb29" d="M27.176 2.394 13 16.57 17.43 21 31.606 6.824s.886-.886 0-1.772l-2.658-2.658c-.886-.886-1.772 0-1.772 0z"/></svg>
